src/icons/svg/private-cloud.svg

<?xml version="1.0" encoding="UTF-8"?>
<svg width="40px" height="35px" viewBox="0 0 40 35" version="1.1" xmlns="http://www.w3.org/2000/svg"
>
    <path d="M25.0010919,22.4989516 L25.0010919,18.7490668 C25.0010919,15.9877279 22.7625844,13.7492205 20.0012455,13.7492205 C17.2399066,13.7492205 15.0013992,15.9877279 15.0013992,18.7490668 L15.0013992,22.4989516 C13.6213009,22.5003296 12.502854,23.6187765 12.501476,24.9988748 L12.501476,32.4986443 C12.502854,33.8787426 13.6213009,34.9971895 15.0013992,34.9985675 L25.0010919,34.9985675 C26.3811901,34.9971895 27.499637,33.8787426 27.5010151,32.4986443 L27.5010151,24.9988748 C27.499637,23.6187765 26.3811901,22.5003296 25.0010919,22.4989516 L25.0010919,22.4989516 Z M17.5013223,18.7490668 C17.5013223,17.3683974 18.6205761,16.2491437 20.0012455,16.2491437 C21.381915,16.2491437 22.5011687,17.3683974 22.5011687,18.7490668 L22.5011687,22.4989516 L17.5013223,22.4989516 L17.5013223,18.7490668 Z M15.0013992,32.4986443 L15.0013992,24.9988748 L25.0010919,24.9988748 L25.0023418,32.4986443 L15.0013992,32.4986443 Z"
          id="形状"></path>
    <path d="M32.287118,10.1430813 C31.3185376,5.11934525 27.3881398,1.19191794 22.3636729,0.227135986 C19.1058905,-0.402397373 15.7314753,0.288925049 12.9837078,2.14882608 C10.2359402,4.00872712 8.34022245,6.88463717 7.71412309,10.1430813 C2.93819287,11.0039975 -0.391834471,15.3665916 0.0371604992,20.2004978 C0.466155469,25.0344041 4.51242163,28.7423738 9.36532235,28.7487596 L10.0015528,28.7487596 L10.0015528,26.2488364 L9.37032219,26.2488364 C5.81283252,26.2423348 2.84747442,23.5238121 2.5325947,19.9802792 C2.21771499,16.4367462 4.65725713,13.2379421 8.15785945,12.6042557 L9.8453076,12.2980151 L10.1690477,10.6168167 C11.076596,5.90380531 15.2010247,2.4978148 20.0006205,2.4978148 C24.8002164,2.4978148 28.9246451,5.90380531 29.8321934,10.6168167 L30.1559335,12.2980151 L31.8421317,12.6042557 C35.3415916,13.2376938 37.7809163,16.434668 37.46775,19.9771799 C37.1545836,23.5196918 34.1922328,26.2391452 30.6359187,26.2488364 L30.0009383,26.2488364 L30.0009383,28.7487596 L30.6359187,28.7487596 C35.4885825,28.7417322 39.5342435,25.0335766 39.9628954,20.1998769 C40.3915473,15.3661772 37.0615669,11.0039507 32.285868,10.1430813 L32.287118,10.1430813 Z"
          id="路径"></path>
</svg>

<svg width="40" height="35" xmlns="http://www.w3.org/2000/svg"><path d="M25.001 22.499v-3.75a5 5 0 0 0-10 0v3.75a2.502 2.502 0 0 0-2.5 2.5v7.5a2.502 2.502 0 0 0 2.5 2.5h10a2.502 2.502 0 0 0 2.5-2.5v-7.5a2.502 2.502 0 0 0-2.5-2.5zm-7.5-3.75a2.5 2.5 0 0 1 5 0v3.75h-5v-3.75zm-2.5 13.75v-7.5h10l.001 7.5h-10z"/><path d="M32.287 10.143A12.508 12.508 0 0 0 22.364.227a12.502 12.502 0 0 0-14.65 9.916A9.377 9.377 0 0 0 9.365 28.75h.637v-2.5H9.37a6.877 6.877 0 0 1-1.212-13.645l1.687-.306.324-1.681a10.012 10.012 0 0 1 19.663 0l.324 1.681 1.686.306a6.877 6.877 0 0 1-1.206 13.645H30v2.5h.635a9.377 9.377 0 0 0 1.65-18.606h.001z"/></svg>
